vectors/ferris.svg

<?xml version="1.0" encoding="UTF-8" standalone="no"?>
<!-- Generated by IcoMoon.io -->

<svg
   version="1.1"
   width="448"
   height="448"
   viewBox="0 0 448 448"
   id="svg25"
   xmlns="http://www.w3.org/2000/svg"
   xmlns:svg="http://www.w3.org/2000/svg">
  <defs
     id="defs29" />
  <title
     id="title2" />
  <path
     id="path7"
     d="M 221.92188 76.416016 C 219.77887 76.416016 217.78111 77.572609 216.66211 79.474609 L 205.51953 98.242188 C 203.76853 98.393186 202.01444 98.576344 200.27344 98.777344 L 185.8457 82.636719 C 184.3847 81.005719 182.20933 80.277031 180.11133 80.707031 C 178.00033 81.146031 176.26558 82.684156 175.51758 84.785156 L 168.12305 105.4043 C 166.41105 105.9183 164.71639 106.45963 163.02539 107.01562 L 145.89258 94.15625 C 144.15058 92.84425 141.88144 92.567687 139.89844 93.429688 C 137.92244 94.284688 136.49825 96.154422 136.15625 98.357422 L 132.75781 120.09961 C 131.18481 120.95061 129.62917 121.82575 128.07617 122.71875 L 108.85352 113.57812 C 106.90152 112.64714 104.6237 112.84189 102.8457 114.08789 C 101.0597 115.32689 100.01666 117.44864 100.09766 119.68164 L 100.83594 141.74414 C 99.46793 142.88514 98.113436 144.05147 96.773438 145.23047 L 76.169922 140.16406 C 74.076922 139.65606 71.881234 140.30477 70.365234 141.88477 C 68.840234 143.46977 68.224844 145.7545 68.714844 147.9375 L 73.568359 169.42969 C 72.442359 170.82269 71.328328 172.23025 70.236328 173.65625 L 49.078125 172.88867 C 46.943125 172.82567 44.906891 173.89286 43.712891 175.75586 C 42.518891 177.60986 42.338562 179.98139 43.226562 182.02539 L 51.990234 202.07617 C 51.139234 203.68617 50.294469 205.30903 49.480469 206.95703 L 28.632812 210.49609 C 26.515812 210.85309 24.732203 212.33144 23.908203 214.39844 C 23.089203 216.47044 23.358516 218.83144 24.603516 220.64844 L 36.9375 238.50781 C 36.8415 238.82281 36.75225 239.14003 36.65625 239.45703 L 1.7929688 276.49023 C 1.7929688 276.49023 -3.5465781 280.67953 4.2324219 290.51953 C 11.091422 299.19953 46.308203 333.61166 64.908203 351.64062 C 72.765203 360.79262 78.147934 366.4607 78.710938 365.9707 C 79.597938 365.1917 74.938844 348.53995 59.464844 329.00195 C 47.537844 311.47295 32.056453 284.51034 35.689453 281.40234 C 35.689453 281.40234 37.43357 279.38104 40.544922 276.98633 C 40.942519 278.45802 41.683937 280.20792 43.007812 282.26562 C 47.262814 288.87662 68.575219 314.75755 79.824219 328.31055 C 84.656219 335.25855 87.93275 339.538 88.21875 339.125 C 88.67075 338.469 85.214186 325.42497 75.617188 310.54297 C 71.140186 302.54897 65.792031 291.95872 62.582031 284.13672 C 68.183625 287.68171 74.865357 291.02017 82.490234 294.10742 C 111.5938 335.53346 132.11719 336.38281 132.11719 336.38281 C 186.84619 406.53081 212.77344 350.16211 212.77344 350.16211 C 182.05365 346.67459 160.28136 326.24388 160.27539 326.23828 C 197.17239 321.58828 218.49414 321.1543 218.49414 321.1543 C 216.66711 318.7441 214.85642 316.55055 213.05859 314.49023 C 214.19957 314.49669 215.33056 314.51562 216.47656 314.51562 C 222.7649 314.51562 228.96522 314.4034 235.08984 314.21289 C 233.29999 316.49665 231.49239 318.93023 229.66016 321.58789 C 229.66016 321.58789 245.25092 312.51045 287.04492 323.56445 C 287.04492 323.56445 267.8198 352.99289 229.0918 352.08789 C 229.0918 352.08789 266.20559 396.61383 322.68359 332.29883 C 322.68359 332.29883 358.72 318.30548 377.05273 288.84375 C 384.48229 285.18159 390.6814 281.23807 395.45312 277.07031 C 393.58412 284.58631 387.19175 299.79233 382.09375 310.48633 C 373.71675 325.78033 370.68327 339.09591 371.07227 339.75391 C 371.32027 340.16891 374.17858 335.75923 378.39258 328.61523 C 388.19958 314.64023 406.78405 287.96006 410.49805 281.16406 C 411.06356 280.12848 411.50197 279.17433 411.85156 278.28711 C 413.74843 279.44041 414.86133 280.35547 414.86133 280.35547 C 418.72933 282.59747 408.71352 310.31987 400.47852 328.67188 C 389.27652 349.50988 387.63298 365.76803 388.58398 366.33203 C 389.18298 366.68903 393.25827 360.48914 399.07227 350.61914 C 413.41727 330.63114 440.53309 292.52548 445.49609 283.27148 C 451.12409 272.77748 445.49609 269.83789 445.49609 269.83789 L 407.96289 242.18945 C 407.60989 240.95845 407.25658 239.72781 406.89258 238.50781 L 419.2207 220.64844 C 420.4777 218.83144 420.73302 216.47044 419.91602 214.39844 C 419.09702 212.33744 417.30745 210.85809 415.18945 210.49609 L 394.34375 206.95703 C 393.53675 205.30903 392.6908 203.68717 391.8418 202.07617 L 400.59766 182.02539 C 401.49866 179.98139 401.30923 177.60986 400.11523 175.75586 C 398.92523 173.89386 396.90395 172.80367 394.75195 172.88867 L 373.5957 173.65625 C 372.4997 172.23025 371.38695 170.81669 370.25195 169.42969 L 375.11328 147.9375 C 375.60528 145.7545 374.98384 143.47077 373.46484 141.88477 C 371.95284 140.30477 369.75597 139.65106 367.66797 140.16406 L 347.06055 145.23047 C 345.72655 144.05147 344.37005 142.88514 342.99805 141.74414 L 343.74023 119.68164 C 343.81923 117.44864 342.77923 115.32589 340.99023 114.08789 C 339.20423 112.84089 336.93447 112.65113 334.98047 113.57812 L 315.75586 122.71875 C 314.20786 121.83075 312.65017 120.95061 311.07617 120.09961 L 307.67969 98.357422 C 307.33569 96.154422 305.91859 94.283687 303.93359 93.429688 C 301.95559 92.571686 299.68622 92.84825 297.94922 94.15625 L 280.81055 107.01562 C 279.12355 106.45562 277.42794 105.9183 275.71094 105.4043 L 268.32422 84.785156 C 267.57322 82.684156 265.84152 81.141031 263.72852 80.707031 C 261.62352 80.276031 259.45609 81.004719 257.99609 82.636719 L 243.57031 98.777344 C 241.82531 98.576344 240.08008 98.392187 238.33008 98.242188 L 227.18945 79.474609 C 226.06045 77.573609 224.06887 76.416016 221.92188 76.416016 z M 273.45703 219.30469 C 278.57303 219.37069 284.30606 221.52964 290.03906 227.80664 C 290.03906 227.80664 303.76806 253.31631 290.03906 266.07031 C 290.03906 266.07031 267.5757 283.92731 255.0957 266.07031 C 255.0957 266.07031 240.1197 252.03964 255.0957 227.80664 C 255.0957 227.80664 256.95678 225.85391 259.91016 223.83789 C 257.37245 226.2759 255.71094 230.32131 255.71094 234.90234 C 255.71094 242.35234 260.10158 248.39258 265.51758 248.39258 C 270.93358 248.39258 275.32422 242.35134 275.32422 234.90234 C 275.32422 227.45334 270.93258 221.41406 265.51758 221.41406 C 264.89819 221.41406 264.29263 221.49734 263.70508 221.64844 C 266.50284 220.30157 269.80619 219.25764 273.45703 219.30469 z M 191.53711 219.61719 C 200.42211 219.56319 210.91767 223.19564 215.26367 238.93164 C 215.26367 238.93164 223.83139 273.45434 190.65039 275.40234 C 190.65039 275.40234 153.37656 268.21145 172.61719 230.37109 C 172.17867 231.92887 171.93555 233.62184 171.93555 235.39258 C 171.93555 243.07458 176.46678 249.30469 182.05078 249.30469 C 187.63678 249.30469 192.16406 243.07458 192.16406 235.39258 C 192.16406 227.70858 187.63678 221.47852 182.05078 221.47852 C 179.93731 221.47852 177.97635 222.37314 176.35352 223.89844 C 176.63634 223.44366 176.81534 223.04266 177.11328 222.58008 C 177.11328 222.58008 183.69711 219.66419 191.53711 219.61719 z M 340.99609 299.44922 C 336.5988 303.17773 331.64601 306.99781 325.9082 310.85938 L 314.99414 313.41797 C 314.99414 313.41797 313.28812 310.42877 310.29688 306.54883 C 321.34342 304.51394 331.62486 302.13124 340.99609 299.44922 z M 116.12109 305.28906 C 122.01868 306.48196 128.15866 307.57028 134.50586 308.55078 C 131.11399 312.17073 129.07031 314.99023 129.07031 314.99023 C 124.70359 313.42895 120.32594 309.82832 116.12109 305.28906 z " />
</svg>

<!-- Generated by IcoMoon.io -->
<svg version="1.1" xmlns="http://www.w3.org/2000/svg" width="448" height="448" viewBox="0 0 448 448">
<title></title>
<g id="icomoon-ignore">
</g>
<path d="M222.933 203.664c-48.712 0-92.97 5.856-125.734 15.4v81.523c32.765 9.544 77.023 15.4 125.734 15.4 55.752 0 105.665-7.671 139.192-19.762v-72.797c-33.527-12.092-83.44-19.764-139.192-19.764zM273.457 219.305c5.116 0.066 10.849 2.224 16.582 8.501 0 0 13.729 25.51 0 38.264 0 0-22.464 17.857-34.944 0 0 0-14.976-14.031 0-38.264 0 0 7.887-8.636 18.362-8.501zM191.537 219.618c8.885-0.054 19.381 3.577 23.727 19.313 0 0 8.568 34.524-24.613 36.472 0 0-42.311-8.149-13.538-52.822 0 0 6.585-2.916 14.425-2.963z"></path>
<path d="M412.337 269.903l-5.71-11.829c0.029-0.449 0.053-0.899 0.053-1.35 0-13.41-13.944-25.769-37.405-35.663v71.327c10.947-4.617 19.827-9.77 26.179-15.318-1.869 7.516-8.262 22.722-13.36 33.416-8.377 15.294-11.411 28.609-11.022 29.267 0.248 0.415 3.106-3.994 7.32-11.138 9.807-13.975 28.392-40.654 32.106-47.45 4.207-7.704 1.838-11.263 1.838-11.263z"></path>
<path d="M42.82 257.506c0 2.583 0.519 5.127 1.522 7.621l-3.42 6.087c0 0-2.739 3.554 2.085 11.052 4.255 6.611 25.568 32.491 36.817 46.044 4.832 6.948 8.108 11.228 8.394 10.815 0.452-0.656-3.003-13.701-12.6-28.583-4.477-7.994-9.825-18.584-13.035-26.406 8.961 5.671 20.685 10.816 34.615 15.244v-83.747c-33.567 10.667-54.378 25.487-54.378 41.873z"></path>
<path d="M221.921 76.416c-2.143 0-4.14 1.157-5.259 3.059l-11.143 18.768c-1.751 0.151-3.505 0.334-5.246 0.535l-14.428-16.141c-1.461-1.631-3.635-2.359-5.733-1.929-2.111 0.439-3.846 1.977-4.594 4.078l-7.394 20.618c-1.712 0.514-3.408 1.056-5.099 1.612l-17.133-12.86c-1.742-1.312-4.010-1.589-5.993-0.727-1.976 0.855-3.4 2.725-3.742 4.928l-3.399 21.742c-1.573 0.851-3.129 1.726-4.682 2.619l-19.222-9.139c-1.952-0.931-4.231-0.738-6.009 0.508-1.786 1.239-2.829 3.361-2.748 5.594l0.738 22.064c-1.368 1.141-2.722 2.306-4.062 3.485l-20.604-5.065c-2.093-0.508-4.287 0.14-5.803 1.72-1.525 1.585-2.142 3.87-1.652 6.053l4.854 21.492c-1.126 1.393-2.24 2.801-3.332 4.227l-21.157-0.769c-2.135-0.063-4.172 1.004-5.366 2.867-1.194 1.854-1.375 4.227-0.487 6.271l8.765 20.050c-0.851 1.61-1.697 3.234-2.511 4.882l-20.847 3.538c-2.117 0.357-3.901 1.835-4.725 3.902-0.819 2.072-0.55 4.433 0.695 6.25l12.334 17.86c-0.096 0.315-0.185 0.633-0.281 0.95l-34.863 37.033c0 0-5.34 4.188 2.439 14.028 6.859 8.68 42.077 43.092 60.677 61.121 7.857 9.152 13.238 14.82 13.801 14.33 0.887-0.779-3.772-17.431-19.246-36.969-11.927-17.529-27.408-44.491-23.775-47.599 0 0 4.125-5.24 12.409-9.012l-0-0c-0.077-0.060-0.153-0.121 0.004-0.001 0 0 174.838 80.652 337.017 1.365 18.526-3.324 29.742 6.601 29.742 6.601 3.868 2.242-6.148 29.964-14.383 48.316-11.202 20.838-12.845 37.098-11.894 37.662 0.599 0.357 4.674-5.844 10.488-15.714 14.345-19.988 41.461-58.093 46.424-67.347 5.628-10.494 0-13.435 0-13.435l-37.533-27.647c-0.353-1.231-0.706-2.462-1.070-3.682l12.328-17.86c1.257-1.817 1.512-4.178 0.695-6.25-0.819-2.061-2.608-3.54-4.726-3.902l-20.846-3.538c-0.807-1.648-1.654-3.271-2.503-4.882l8.757-20.050c0.901-2.044 0.711-4.417-0.483-6.271-1.19-1.862-3.211-2.952-5.363-2.867l-21.157 0.769c-1.096-1.426-2.208-2.84-3.343-4.227l4.861-21.492c0.492-2.183-0.13-4.467-1.649-6.053-1.512-1.58-3.708-2.233-5.796-1.72l-20.607 5.065c-1.334-1.179-2.691-2.344-4.063-3.485l0.742-22.064c0.079-2.233-0.961-4.356-2.75-5.594-1.786-1.247-4.055-1.435-6.009-0.508l-19.225 9.139c-1.548-0.888-3.105-1.768-4.679-2.619l-3.397-21.742c-0.344-2.203-1.762-4.074-3.747-4.928-1.978-0.858-4.246-0.581-5.983 0.727l-17.139 12.86c-1.687-0.56-3.383-1.098-5.1-1.612l-7.387-20.618c-0.751-2.101-2.483-3.644-4.596-4.078-2.105-0.431-4.271 0.297-5.731 1.929l-14.427 16.141c-1.745-0.201-3.49-0.385-5.24-0.535l-11.14-18.768c-1.129-1.901-3.122-3.059-5.269-3.059zM48.099 272.388c-0.001 0-0.002 0.001-0.003 0.001 0.077 0.060 0.154 0.119 0.003-0.001zM273.457 219.305c5.116 0.066 10.849 2.224 16.582 8.501 0 0 13.729 25.51 0 38.264 0 0-22.464 17.857-34.944 0 0 0-14.976-14.031 0-38.264 0 0 7.887-8.636 18.362-8.501zM191.537 219.618c8.885-0.054 19.381 3.577 23.727 19.313 0 0 8.568 34.524-24.613 36.472 0 0-42.311-8.149-13.538-52.822 0 0 6.585-2.916 14.425-2.963z"></path>
<path d="M163.864 321.588c-0.669-0.571-1.019-0.909-1.019-0.909l57.272-4.692c-46.717-61.63-84.144-12.535-88.127-7.046v12.646z"></path>
<path d="M283.111 320.924c0.668-0.571 1.019-0.91 1.019-0.91l-55.038-4.027c46.739-64.16 81.912-13.2 85.895-7.71v12.647z"></path>
<path d="M371.091 259.737c0 0-6.258 24.927-45.182 51.123l-10.915 2.558c0 0-35.309-64.39-85.333 8.17 0 0 15.59-9.077 57.384 1.977 0 0-19.226 29.427-57.954 28.522 0 0 37.114 44.526 93.592-19.789 0 0 59.703-23.088 64.546-72.561z"></path>
<path d="M160.275 326.238c36.897-4.65 58.22-5.083 58.22-5.083-49.366-65.123-89.424-6.165-89.424-6.165-10.038-3.589-20.272-17.523-27.915-30.371l-30.631-9.072c35.306 59.923 61.592 60.836 61.592 60.836 54.729 70.148 80.656 13.779 80.656 13.779-30.724-3.488-52.499-23.924-52.499-23.924z"></path>
<path d="M275.324 234.903c0 7.449-4.391 13.489-9.807 13.489s-9.806-6.039-9.806-13.489 4.391-13.489 9.806-13.489c5.415 0 9.807 6.040 9.807 13.489z"></path>
<path d="M192.164 235.392c0 7.682-4.528 13.913-10.114 13.913-5.584 0-10.114-6.231-10.114-13.913 0-7.684 4.529-13.913 10.114-13.913 5.586 0 10.114 6.229 10.114 13.913z"></path>
</svg>
